!!!!SEGMENT: Any1001d-Missa_Vulnerasti_cor_meum-Sanctus.krn
!!!id: Any1001d
!!!OTL: Sanctus
!!!AGN: Mass; Sanctus
!!!voices: 3–4
!!!COM: Anonymous
!!!OPR: Missa Vulnerasti cor meum
**kern	**kern	**kern	**kern
*part4	*part3	*part2	*part1
*staff4	*staff3	*staff2	*staff1
*I"Bassus	*I"Tenor	*I"Altus	*I"Superius
*I'B	*I'T	*I'A	*I'S
*clefF4	*clefGv2	*clefGv2	*clefG2
*k[b-]	*k[b-]	*k[b-]	*k[b-]
*F:	*F:	*F:	*F:
*M3/1	*M3/1	*M3/1	*M3/1
*met(O)	*met(O)	*met(O)	*met(O)
!!section: Sanctus
!!!OMD: Sanctus
=1	=1	=1	=1
0.r	0.r	0.r	1.dd
.	.	.	4cc
.	.	.	4b-y
.	.	.	2cc
.	.	.	2dd
=2	=2	=2	=2
0.r	0.r	1.g	2g
.	.	.	1b-y
.	.	4f	4a
.	.	4e	4g
.	.	2f	2a
.	.	2g	[2b-y
=3	=3	=3	=3
1.d	0.r	2d	2b-]
.	.	1f	4a
.	.	.	4g
.	.	.	1f
4c	.	4e	.
4B-y	.	4d	.
2c	.	2e	1r
2d	.	2d	.
=4	=4	=4	=4
2G	1.g	1r	1r
1B-y	.	.	.
.	.	1r	1r
4A	4f	.	.
4G	4e	.	.
2A	2f	2r	2r
2G	2g	2d	2b-y
=5	=5	=5	=5
1d	2d	2.f	2.a
.	1f	.	.
.	.	4g	4b-y
2A	.	2a	2cc
2B-y	4e	2g	1dd
.	4d	.	.
1A	1e	1a	.
.	.	.	2cc#i
=6	=6	=6	=6
2r	0d	2r	0dd
1d	.	1f	.
4c	.	4e	.
4B-y	.	4d	.
2c	1r	2e	1r
2d	.	2f	.
=7	=7	=7	=7
2G	2r	1g	1r
1B-y	1d	.	.
.	.	2r	1b-y
4A	4c	2g	.
4G	4B-y	.	.
2A	2c	2f	2a
2G	2d	2g	[2b-y
=8	=8	=8	=8
2r	2G	1.d	2b-]
2G	1B-y	.	4a
.	.	.	4g
2D	.	.	2f
2E-X	4A	2c	1g
.	4G	.	.
1D	1A	1d	.
.	.	.	2f#i
=9	=9	=9	=9
2r	0G	0d	2g
1d	.	.	1b-y
4c	.	.	4a
4B-y	.	.	4g
2c	1r	1r	2a
2d	.	.	[2b-y
=10	=10	=10	=10
2G	0d	2r	4b-]
.	.	.	4cc
2.G	.	2.b-y	1dd
4A	.	4a	.
4B-y	.	1g	4cc
4c	.	.	4b-y
1d	1d	.	1a
.	.	2f#i	.
=11	=11	=11	=11
1.G	0g	1g	2.g
.	.	.	4a
.	.	1d	2b-y
4F	.	.	2cc
4E	.	.	.
1D	[1f	2r	2.dd
.	.	[2d	.
.	.	.	4cc
=12	=12	=12	=12
1A	2f]	2d]	2a
.	2e	2c	1cc
2B-y	2d	2d	.
2G	2B-y	2e	1b-y
1F	1c	2.f	.
.	.	.	2a
.	.	4e	.
=13	=13	=13	=13
1G	1.B-y	4d	2.b-y
.	.	4c	.
.	.	1d	.
.	.	.	4a
2D	.	.	2f
2E	4A	2c	1g
.	4G	.	.
1D	1A	1d	.
.	.	.	2f#i
=14	=14	=14	=14
1r	0G	2r	2g
.	.	2d	1b-y
2r	.	2.B-y	.
1G	.	.	4a
.	.	4c	4g
.	2r	4d	1a
.	.	4e	.
2F	[2c	[2f	.
=15	=15	=15	=15
1G	2c]	2f]	1g
.	2B-y	2e	.
1F	1c	1f	2r
.	.	.	2a
1G	2r	2.d	2b-y
.	2B-y	.	2g
.	.	4e	.
=16	=16	=16	=16
1F	1c	4f	1a
.	.	4g	.
.	.	1a	.
2B-y	1d	.	2r
2G	.	1g	2b-y
1A	2r	.	2cc
.	2c	2f	2a
=17	=17	=17	=17
2G	1d	2g	1b-y
1d	.	2.b-y	.
.	1e	.	2r
.	.	4a	.
2c	.	1a	2cc
1B-y	2r	.	2dd
.	2d	2g	2b-y
=18	=18	=18	=18
2A	1e	2a	1cc
1c	.	2g	.
.	1f	2a	2r
2B-y	.	2b-y	2dd
2c	2r	2g	2ee
2A	2e	[2a	2cc
=19	=19	=19	=19
2r	1f	4a]	1dd
.	.	4g	.
1d	.	2f	.
.	1g	1e	2r
2c	.	.	2ee
1d	2f	2r	1ff
.	[2a	2d	.
=20	=20	=20	=20
2c	2a]	2e	2ee
2B-y	2d	4f	1dd
.	.	4g	.
1A	1e	1a	.
.	.	.	2cc#i
2B-y	2d	1r	[1dd
[2d	[2f	.	.
=21	=21	=21	=21
2d]	2f]	1a	1dd]
4c	4e	.	.
4B-y	4d	.	.
1A	1e	2.a	1cc
.	.	4g	.
2.B-y	2d	2f	[1b-y
.	[2G	[2g	.
4A	.	.	.
=22	=22	=22	=22
2G	4G]	4g]	2b-]
.	4A	4f	.
4F	1B-y	1d	4a
4E	.	.	4g
2D	.	.	2f
2E-X	4A	2c	1g
.	4G	.	.
1D	1A	1d	.
.	.	.	2f#i
=23	=23	=23	=23
0.E-i	0.G	2.B-y	2g
.	.	.	2.dd
.	.	4c	.
.	.	4d	.
.	.	4e	4cc
.	.	1d	1b-y
.	.	2c	4a
.	.	.	4g
=24	=24	=24	=24
00D	00A	00d	00f
=25||	=25||	=25||	=25||
*M3/1	*M3/1	*M3/1	*M3/1
*met(O|3)	*met(O|3)	*met(O|3)	*met(O|3)
!!section: Osanna
!!!OMD: Osanna
0G	0g	0g	0dd
1G	1g	1g	1dd
=26	=26	=26	=26
0D	0f	0a	0dd
1A	1e	1a	1cc
=27	=27	=27	=27
0B-y	1.d	1.f	0dd
.	2e	2g	.
1A	1f	1a	1cc
=28	=28	=28	=28
1G	1g	1d	1b-y
0F	1.a	1.f	0cc
.	2g	2e	.
=29	=29	=29	=29
1G	0g	2d	0b-y
.	.	2c	.
0D	.	0d	.
.	1f#i	.	1a
=30	=30	=30	=30
0G	0g	0d	0b-y
1G	1g	1d	1b-y
=31	=31	=31	=31
2F	0a	0f	2a
2G	.	.	2b-y
2A	.	.	2cc
2B-y	.	.	2dd
1c	1g	1e	1ee
=32	=32	=32	=32
1d	1f	1f	0dd
1B-y	1d	1g	.
1A	1e	1a	1cc
=33	=33	=33	=33
1B-y	0d	0g	1dd
1G	.	.	1b-y
1A	1c	1f	1cc
=34	=34	=34	=34
0G	1d	0g	0b-y
.	1B-y	.	.
1r	1c	1r	1a
=35	=35	=35	=35
1.d	0B-y	0d	0b-y
4c	.	.	.
4B-y	.	.	.
1c	1r	1e	1r
=36	=36	=36	=36
1d	0d	1f	1a
1G	.	1g	1b-y
1A	1c	1f	1cc
=37	=37	=37	=37
1G	1d	0g	1b-y
1E	1e	.	1g
1D	1f	1r	1a
=38	=38	=38	=38
0G	0g	1.b-y	0g
.	.	2a	.
1r	1e	1g	1ee
=39	=39	=39	=39
1d	1d	0a	1ff
1c	1e	.	1.ee
1d	1f	1a	.
.	.	.	2dd
=40	=40	=40	=40
1G	1g	1b-y	0dd
0A	0e	0a	.
.	.	.	1cc#i
=41	=41	=41	=41
0B-y	0d	0f	1.dd
.	.	.	2cc
1G	1g	1r	1b-y
=42	=42	=42	=42
1.d	1.f	1.d	1a
.	.	.	1.dd
2c	2e	2e	.
2B-y	[1d	1f	.
2A	.	.	2cc
=43	=43	=43	=43
0G	2d]	1g	1.b-y
.	2c	.	.
.	1B-y	0d	.
.	.	.	4a
.	.	.	4g
1D	1A	.	1f
=44	=44	=44	=44
1E-X	1G	1c	0g
0D	0A	0d	.
.	.	.	1f#i
=45	=45	=45	=45
0.E-i	0.G	0B-y	0.g
.	.	1c	.
=46	=46	=46	=46
00D	00Al	00d	00f
=47||	=47||	=47||	=47||
*M2/1	*M2/1	*M2/1	*M2/1
*met(C|)	*met(C|)	*met(C|)	*met(C|)
!!section: Benedictus
!!!OMD: Benedictus
2.G	0r	1.g	0r
4A	.	.	.
2B-y	.	.	.
2c	.	4f	.
.	.	4e	.
=48	=48	=48	=48
2d	0r	2f	1r
2G	.	2g	.
2B-y	.	2d	[1dd
2c	.	[2f	.
=49	=49	=49	=49
1d	0r	2f]	2dd]
.	.	4e	4cc
.	.	4d	4b-y
2A	.	2e	2cc
2B-y	.	2d	2dd
=50	=50	=50	=50
2c	0r	2e	2g
2G	.	1g	2b-y
1d	.	.	1a
.	.	2f#i	.
=51	=51	=51	=51
0G	0r	1g	0g
.	.	2r	.
.	.	[2b-y	.
=52	=52	=52	=52
1d	0r	2b-]	0r
.	.	4a	.
.	.	4g	.
2c	.	4a	.
.	.	4g	.
[2d	.	4f	.
.	.	4e	.
=53	=53	=53	=53
4d]	0r	2d	0r
4c	.	.	.
1B-y	.	1g	.
4A	.	4f	.
4G	.	4e	.
=54	=54	=54	=54
1A	0r	2f	0r
.	.	2.e	.
2G	.	.	.
.	.	4d	.
2F	.	[2d	.
=55	=55	=55	=55
1E	0r	2d]	1g
.	.	2c#i	.
2D	.	1d	1f
[2d	.	.	.
=56	=56	=56	=56
2d]	0r	2r	1e
2c	.	1g	.
1d	.	.	2d
.	.	2f	[2dd
=57	=57	=57	=57
1A	0r	1e	2dd]
.	.	.	2cc
1d	.	2d	1ff
.	.	[2a	.
=58	=58	=58	=58
1c	0r	2a]	1ee
.	.	2g	.
1d	.	2b-y	2dd
.	.	[2a	[2ff
=59	=59	=59	=59
2r	0r	2a]	2ff]
2d	.	4g	4ee
.	.	4f	4dd
1c	.	2g	4ee
.	.	.	4dd
.	.	[2a	4cc
.	.	.	4b-y
=60	=60	=60	=60
1d	0r	4a]	2a
.	.	4g	.
.	.	2f	1dd
1A	.	1e	.
.	.	.	2cc
=61	=61	=61	=61
2B-y	0r	2.d	2b-y
2F	.	.	2.a
.	.	4c	.
2G	.	2.B-y	.
.	.	.	4g
2E	.	.	[2g
.	.	8A	.
.	.	8G	.
=62	=62	=62	=62
1D	0r	1A	2g]
.	.	.	2f#i
2r	.	[1G	2g
[2d	.	.	[2b-y
=63	=63	=63	=63
2d]	0r	1G]	2b-]
4c	.	.	4a
4B-y	.	.	4g
2c	.	2r	2a
2d	.	4G	[2b-y
.	.	4A	.
=64	=64	=64	=64
2G	0r	4B-y	2b-]
.	.	4c	.
1d	.	4d	4a
.	.	4e	4g
.	.	4f	2f
.	.	4g	.
4c	.	2a	2ff
4B-y	.	.	.
=65	=65	=65	=65
2c	0r	2g	2ee
2d	.	2f	1dd
2G	.	2g	.
[2d	.	4d	4cc
.	.	4e	4b-y
=66	=66	=66	=66
2d]	0r	4f	1a
.	.	4g	.
2c	.	2.a	.
2B-y	.	.	1b-y
.	.	4g	.
2G	.	[2g	.
=67	=67	=67	=67
1A	0r	2g]	2r
.	.	2f#i	2a
[1G	.	2g	2.b-y
.	.	[2b-y	.
.	.	.	4cc
=68	=68	=68	=68
1G]	0r	4b-]	2dd
.	.	4a	.
.	.	2.g	1ee
1r	.	.	.
.	.	4d	.
.	.	2f	[2dd
=69	=69	=69	=69
1r	0r	1e	2dd]
.	.	.	2cc
[1d	.	2.d	2.dd
.	.	4e	4cc
=70	=70	=70	=70
0d]	0r	4f	2a
.	.	4g	.
.	.	2.a	2.ff
.	.	4g	4ee
.	.	[2b-y	[2dd
=71	=71	=71	=71
1d	0r	2b-]	2dd]
.	.	4a	4cc
.	.	4g	4b-y
1d	.	1f	1a
=72	=72	=72	=72
1G	0r	2g	4g
.	.	.	4a
.	.	2.d	4b-y
.	.	.	4cc
1r	.	.	2.dd
.	.	4e	.
.	.	4f	.
.	.	4g	4ee
=73	=73	=73	=73
[0A	0r	1.a	2ff
.	.	.	2.cc
.	.	.	4dd
.	.	4g	4ee
.	.	4f	4ff
=74	=74	=74	=74
0A]	0r	4g	2ee
.	.	4f	.
.	.	4e	1dd
.	.	4d	.
.	.	1e	.
.	.	.	2cc#i
=75	=75	=75	=75
0D	0r	2d	1.dd
.	.	1f	.
.	.	4e	4cc
.	.	4d	4b-y
=76	=76	=76	=76
1F	0r	2c	2a
.	.	1d	2f
1E	.	.	1g
.	.	2c#i	.
=77	=77	=77	=77
2D	0r	2.d	2.f
2.d	.	.	.
.	.	4e	4g
.	.	2f	2a
4c	.	.	.
4B-y	.	[2g	[2b-y
4A	.	.	.
=78	=78	=78	=78
2G	0r	4g]	4b-]
.	.	4f	4a
2.A	.	4e	2.cc
.	.	4d	.
.	.	2c	.
4G	.	.	4b-y
4F	.	[2d	4a
4E	.	.	4g
=79	=79	=79	=79
2D	0r	4d]	2f
.	.	4c	.
2E-X	.	4B-y	1g
.	.	4G	.
1D	.	1A	.
.	.	.	2f#i
=80	=80	=80	=80
0Gl	0r	0Gl	0gl
==	==	==	==
*-	*-	*-	*-
!!!system-decoration: [*]
!!!RDF**kern: i = editorial accidental
!!!RDF**kern: l = terminal long
!!!ENC: David Burn
!!!END: 2025/2/18
!!!EED: Benjamin Ory
!!!EEV: 2025/2/18
!!!YEC: Copyright 2025 David Burn, All Rights Reserved
!!!ONB: Translated from MusicXML on 2025/2/12
!!!verovio: header encoded
!!!header-left: Edited by @{ENC} (2025)\n
!!!header-right:
!!!header-center: